src/assets/icons/swingset.svg

<svg xmlns="http://www.w3.org/2000/svg" viewBox="0 0 32 32"><path d="M27 2v2h2v2H3V4h2V2H1v28h2V8h3v18h8V8h6.5v10.12a4.5 4.5 0 102 0V8H29v22h2V2zm-3 20.5a2.5 2.5 0 11-2.5-2.5 2.5 2.5 0 012.5 2.5zM8 24v-2h4v2zm4-4H8V8h4z" fill-rule="evenodd"/></svg>

<svg xmlns="http://www.w3.org/2000/svg" width="32" height="32" viewBox="0 0 32 32"><defs><style>.cls-1{fill-rule:evenodd;}</style></defs><g id="swingset"><path id="Shape" class="cls-1" d="M27,2V4h2V6H3V4H5V2H1V30H3V8H6V26h8V8h6.5V18.12a4.5,4.5,0,1,0,2,0V8H29V30h2V2ZM24,22.5A2.5,2.5,0,1,1,21.5,20,2.5,2.5,0,0,1,24,22.5ZM8,24V22h4v2Zm4-4H8V8h4Z"/></g></svg>
